!!!COM:	Bartok
!!!OTL:	348_Bar-54/74-76/527-551
**kern	**dynam	**kern	**dynam	**kern	**dynam	**kern	**dynam	**kern	**dynam	**kern	**kern	**dynam	**kern	**dynam	**kern	**dynam	**kern	**dynam	**kern	**dynam	**kern	**dynam	**kern	**dynam	**kern	**dynam	**kern	**dynam	**kern	**dynam	**kern	**dynam
*part16	*part16	*part15	*part15	*part14	*part14	*part13	*part13	*part12	*part12	*part11	*part11	*part11	*part10	*part10	*part9	*part9	*part8	*part8	*part7	*part7	*part6	*part6	*part5	*part5	*part4	*part4	*part3	*part3	*part2	*part2	*part1	*part1
*staff17	*	*staff16	*	*staff15	*	*staff14	*	*staff13	*	*staff12	*staff11	*	*staff10	*	*staff9	*	*staff8	*	*staff7	*	*staff6	*	*staff5	*	*staff4	*	*staff3	*	*staff2	*	*staff1	*
*I"Contrabass	*	*I"Violoncello	*	*I"Viola	*	*I"Violin II	*	*I"Violin I	*	*I"Piano	*	*	*I"Timpani	*	*I"Tuba	*	*I"Trumpet in C	*	*I"Horn in F	*	*I"Horn in F	*	*I"Bassoons	*	*I"Clarinet in A	*	*I"Oboes	*	*I"Flutes	*	*I"Piccolo	*
*I'Cb.	*	*I'Vc.	*	*I'Vla.	*	*I'Vln. II	*	*I'Vln. I	*	*I'Pno.	*	*	*I'Timp.	*	*I'Tba.	*	*I'C Tpt.	*	*I'Hn.	*	*I'Hn.	*	*I'Bsn.	*	*I'Cl.	*	*I'Ob.	*	*I'Fl.	*	*I'Picc.	*
*clefF4	*	*clefF4	*	*clefC3	*	*clefG2	*	*clefG2	*	*clefF4	*clefG2	*	*clefF4	*	*clefF4	*	*clefG2	*	*clefG2	*	*clefG2	*	*clefF4	*	*clefG2	*	*clefG2	*	*clefG2	*	*clefG2	*
*k[]	*	*k[]	*	*k[]	*	*k[]	*	*k[]	*	*k[]	*k[]	*	*	*	*k[]	*	*k[]	*	*k[]	*	*k[]	*	*k[]	*	*k[]	*	*k[]	*	*k[]	*	*k[]	*
*	*	*	*	*	*	*	*	*	*	*	*	*	*	*	*	*	*	*	*	*	*	*	*	*	*	*	*	*	*	*	*	*
*M3/8	*	*M3/8	*	*M3/8	*	*M3/8	*	*M3/8	*	*M3/8	*M3/8	*	*M3/8	*	*M3/8	*	*M3/8	*	*M3/8	*	*M3/8	*	*M3/8	*	*M3/8	*	*M3/8	*	*M3/8	*	*M3/8	*
=1	=	=	=	=	=	=	=	=	=	=	=	=	=	=	=	=	=	=	=	=	=	=	=	=	=	=	=	=	=	=	=	=
4CC#X	f	4C#X	f	4.g#X 4.b	f	8ee	f	8eee	f	4E 4e	4ee 4eee	ff	4C#X	f	4.r	.	4.r	.	[4.G#X [4.B	f	[4.e#X	f	8eL	f	8ee	f	8ee	f	8eee	f	8eee	f
.	.	.	.	.	.	4ee	.	4eee	.	.	.	.	.	.	.	.	.	.	.	.	.	.	8CC#X 8C#X	.	8r	.	8r	.	8r	.	8r	.
[8GGG#X	.	[8GG#X	.	.	.	.	.	.	.	8r	8r	.	8r	.	.	.	.	.	.	.	.	.	[8GG#XJ	.	8r	.	8r	.	8r	.	8r	.
=2	=2	=2	=2	=2	=2	=2	=2	=2	=2	=2	=2	=2	=2	=2	=2	=2	=2	=2	=2	=2	=2	=2	=2	=2	=2	=2	=2	=2	=2	=2	=2	=2
8GGG#]	.	8GG#]	.	4.g#X 4.b	.	4dd#X	.	4ddd#X	.	4.r	4.r	.	4.r	.	4.r	.	4.r	.	4.G#] 4.B]	.	4.e#]	.	8GG#]	.	4.r	.	4.r	.	4.r	.	4.r	.
4CC#X	.	4C#X	.	.	.	.	.	.	.	.	.	.	.	.	.	.	.	.	.	.	.	.	4CC#X 4C#X	.	.	.	.	.	.	.	.	.
.	.	.	.	.	.	8ee	.	8eee	.	.	.	.	.	.	.	.	.	.	.	.	.	.	.	.	.	.	.	.	.	.	.	.
=3	=3	=3	=3	=3	=3	=3	=3	=3	=3	=3	=3	=3	=3	=3	=3	=3	=3	=3	=3	=3	=3	=3	=3	=3	=3	=3	=3	=3	=3	=3	=3	=3
8CC#X	.	8C#X	.	4.f#X 4.a	.	4ee	.	4eee	.	4.r	4.r	.	4FF#X	.	4.r	.	4.r	.	[4.F#X [4.A	.	[4.f#X	.	8CC#X 8C#X	.	4.r	.	4.r	.	4.r	.	4.r	.
4GGG#X	.	4GG#X	.	.	.	.	.	.	.	.	.	.	.	.	.	.	.	.	.	.	.	.	4GG#X	.	.	.	.	.	.	.	.	.
.	.	.	.	.	.	8cc#X	.	8ccc#X	.	.	.	.	8r	.	.	.	.	.	.	.	.	.	.	.	.	.	.	.	.	.	.	.
=4	=4	=4	=4	=4	=4	=4	=4	=4	=4	=4	=4	=4	=4	=4	=4	=4	=4	=4	=4	=4	=4	=4	=4	=4	=4	=4	=4	=4	=4	=4	=4	=4
4CC#X	.	4C#X	.	4.f#X 4.a	.	8b	.	8bb	.	4.r	4.r	.	4.r	.	4.r	.	4.r	.	4.F#] 4.A]	.	4.f#]	.	4CC#X 4C#X	.	4.r	.	4.r	.	4.r	.	4.r	.
.	.	.	.	.	.	4cc#X	.	4ccc#X	.	.	.	.	.	.	.	.	.	.	.	.	.	.	.	.	.	.	.	.	.	.	.	.
8GGG#X	.	8GG#X	.	.	.	.	.	.	.	.	.	.	.	.	.	.	.	.	.	.	.	.	8GG#X	.	.	.	.	.	.	.	.	.
=5	=5	=5	=5	=5	=5	=5	=5	=5	=5	=5	=5	=5	=5	=5	=5	=5	=5	=5	=5	=5	=5	=5	=5	=5	=5	=5	=5	=5	=5	=5	=5	=5
4CC#X	.	4C#X	.	4.g#X 4.b	f	8ee	.	8eee	.	4.r	4.r	.	4C#X	.	4.r	.	4.r	.	[4.G#X [4.B	.	[4.e#X	.	4CC#X 4C#X	.	4.r	.	4.r	.	4.r	.	4.r	.
.	.	.	.	.	.	4ee	.	4eee	.	.	.	.	.	.	.	.	.	.	.	.	.	.	.	.	.	.	.	.	.	.	.	.
[8GGG#X	.	[8GG#X	.	.	.	.	.	.	.	.	.	.	8r	.	.	.	.	.	.	.	.	.	[8GG#X	.	.	.	.	.	.	.	.	.
=6	=6	=6	=6	=6	=6	=6	=6	=6	=6	=6	=6	=6	=6	=6	=6	=6	=6	=6	=6	=6	=6	=6	=6	=6	=6	=6	=6	=6	=6	=6	=6	=6
8GGG#]	.	8GG#]	.	4.g#X 4.b	.	4ff##X	.	4fff##X	.	4.r	4.r	.	4.r	.	4.r	.	4.r	.	4.G#] 4.B]	.	4.e#]	.	8GG#]	.	4.r	.	4.r	.	4.r	.	4.r	.
4CC#X	.	4C#X	.	.	.	.	.	.	.	.	.	.	.	.	.	.	.	.	.	.	.	.	4CC#X 4C#X	.	.	.	.	.	.	.	.	.
.	.	.	.	.	.	8ee	.	8eee	.	.	.	.	.	.	.	.	.	.	.	.	.	.	.	.	.	.	.	.	.	.	.	.
=7	=7	=7	=7	=7	=7	=7	=7	=7	=7	=7	=7	=7	=7	=7	=7	=7	=7	=7	=7	=7	=7	=7	=7	=7	=7	=7	=7	=7	=7	=7	=7	=7
8CC#X	.	8C#X	.	4.f#X 4.a	.	4cc#X	.	4ccc#X	.	4.r	4.r	.	4FF#X	.	4.r	.	4.r	.	[4.F#X [4.A	.	[4.f#X	.	8CC#X 8C#X	.	8F#XL	ff	4r	.	8r	.	4.r	.
4GGG#X	.	4GG#X	.	.	.	.	.	.	.	.	.	.	.	.	.	.	.	.	.	.	.	.	4GG#X	.	8A	.	.	.	8aL	ff	.	.
.	.	.	.	.	.	8a	.	8aa	.	.	.	.	8r	.	.	.	.	.	.	.	.	.	.	.	8c#XJ	.	8c#X	ff	8cc#XJ	.	.	.
=8	=8	=8	=8	=8	=8	=8	=8	=8	=8	=8	=8	=8	=8	=8	=8	=8	=8	=8	=8	=8	=8	=8	=8	=8	=8	=8	=8	=8	=8	=8	=8	=8
4CC#X	.	4C#X	.	4.f#X 4.a	.	8g#X	.	8gg#X	.	4.r	4.r	.	4.r	.	4.r	.	4.r	.	4.F#] 4.A]	.	4.f#]	.	4CC#X 4C#X	.	8f#XL	.	8f#XL	.	8ff#XL	.	8r	.
.	.	.	.	.	.	4f#X	.	4ff#X	.	.	.	.	.	.	.	.	.	.	.	.	.	.	.	.	8a	.	8a	.	8aa	.	8aaL	ff
8GGG#X	.	8GG#X	.	.	.	.	.	.	.	.	.	.	.	.	.	.	.	.	.	.	.	.	8GG#X	.	8cc#XJ	.	8cc#XJ	.	8ccc#XJ	.	8ccc#XJ	.
=9	=9	=9	=9	=9	=9	=9	=9	=9	=9	=9	=9	=9	=9	=9	=9	=9	=9	=9	=9	=9	=9	=9	=9	=9	=9	=9	=9	=9	=9	=9	=9	=9
4CC#X	ff	4C#X	ff	4.g#X 4.b	f	8e	ff	8ee	ff	4.r	4.r	.	4.C#Xt	ff	4CC#X	ff	[4.e#X	ff	[4.G#X	ff	[4.B	ff	4C#X	ff	8ee	.	8ee	.	8eee	.	8eee	.
.	.	.	.	.	.	4ee	.	4eee	.	.	.	.	.	.	.	.	.	.	.	.	.	.	.	.	4ee	.	4ee	.	4eee	.	4eeee	.
[8GGG#X	.	[8GG#X	.	.	.	.	.	.	.	.	.	.	.	.	[8FFF#X	.	.	.	.	.	.	.	[8GG#X	.	.	.	.	.	.	.	.	.
=10	=10	=10	=10	=10	=10	=10	=10	=10	=10	=10	=10	=10	=10	=10	=10	=10	=10	=10	=10	=10	=10	=10	=10	=10	=10	=10	=10	=10	=10	=10	=10	=10
8GGG#]	.	8GG#]	.	4.g#X 4.b	.	4dd#X	.	4ddd#X	.	4.r	4.r	.	8C#X	.	8FFF#]	.	4.e#]	.	4.G#]	.	4.B]	.	8GG#]	.	4dd#X	.	4dd#X	.	4ddd#X	.	4dddd#X	.
4CC#X	.	4C#X	.	.	.	.	.	.	.	.	.	.	8r	.	4CC#X	.	.	.	.	.	.	.	4C#X	.	.	.	.	.	.	.	.	.
.	.	.	.	.	.	8ee	.	8eee	.	.	.	.	8r	.	.	.	.	.	.	.	.	.	.	.	8ee	.	8ee	.	8eee	.	8eeee	.
=11	=11	=11	=11	=11	=11	=11	=11	=11	=11	=11	=11	=11	=11	=11	=11	=11	=11	=11	=11	=11	=11	=11	=11	=11	=11	=11	=11	=11	=11	=11	=11	=11
8CC#X	.	8C#X	.	4.f#X 4.a	.	4ee	.	4eee	.	4.r	4.r	.	4.FF#Xt	.	8CC#X	.	[4.f#X	.	[4.F#X	.	[4.A	.	8C#X	.	4ee	.	4ee	.	4eee	.	4eeee	.
4FFF#X	.	4FF#X	.	.	.	.	.	.	.	.	.	.	.	.	4FFF#X	.	.	.	.	.	.	.	4FF#X	.	.	.	.	.	.	.	.	.
.	.	.	.	.	.	8cc#X	.	8ccc#X	.	.	.	.	.	.	.	.	.	.	.	.	.	.	.	.	8cc#X	.	8cc#X	.	8ccc#X	.	8cccc#X	.
=12	=12	=12	=12	=12	=12	=12	=12	=12	=12	=12	=12	=12	=12	=12	=12	=12	=12	=12	=12	=12	=12	=12	=12	=12	=12	=12	=12	=12	=12	=12	=12	=12
4CC#X	.	4C#X	.	4.f#X 4.a	.	8b	.	8bb	.	4.r	4.r	.	8FF#X	.	4CC#X	.	4.f#]	.	4.F#]	.	4.A]	.	4C#X	.	8b	.	8b	.	8bb	.	8bbb	.
.	.	.	.	.	.	4cc#X	.	4ccc#X	.	.	.	.	8r	.	.	.	.	.	.	.	.	.	.	.	4cc#X	.	4cc#X	.	4ccc#X	.	4cccc#X	.
8FFF#X	.	8FF#X	.	.	.	.	.	.	.	.	.	.	8r	.	8FF#X	.	.	.	.	.	.	.	8FF#X	.	.	.	.	.	.	.	.	.
=13	=13	=13	=13	=13	=13	=13	=13	=13	=13	=13	=13	=13	=13	=13	=13	=13	=13	=13	=13	=13	=13	=13	=13	=13	=13	=13	=13	=13	=13	=13	=13	=13
!!pagebreak:original
4CC#X	.	4C#X	.	4.g#X 4.b	f	8ee	.	8eee	.	4.r	4.r	.	4.C#Xt	.	4CC#X	.	[4.e#X	.	[4.G#X	.	[4.B	.	4C#X	.	8ee	.	8ee	.	8eee	.	8eeee	.
.	.	.	.	.	.	4ee	.	4eee	.	.	.	.	.	.	.	.	.	.	.	.	.	.	.	.	4ee	.	4ee	.	4eee	.	4eeee	.
[8GGG#X	.	[8GG#X	.	.	.	.	.	.	.	.	.	.	.	.	[8FFF#X	.	.	.	.	.	.	.	[8GG#X	.	.	.	.	.	.	.	.	.
=14	=14	=14	=14	=14	=14	=14	=14	=14	=14	=14	=14	=14	=14	=14	=14	=14	=14	=14	=14	=14	=14	=14	=14	=14	=14	=14	=14	=14	=14	=14	=14	=14
8GGG#]	.	8GG#]	.	4.g#X 4.b	.	4ff##X	.	4fff##X	.	4.r	4.r	.	8C#X	.	8FFF#]	.	4.e#]	.	4.G#]	.	4.B]	.	8GG#]	.	4ff##X	.	4ff##X	.	4fff##X	.	4ffff##X	.
4CC#X	.	4C#X	.	.	.	.	.	.	.	.	.	.	8r	.	4CC#X	.	.	.	.	.	.	.	4C#X	.	.	.	.	.	.	.	.	.
.	.	.	.	.	.	8ee	.	8eee	.	.	.	.	8r	.	.	.	.	.	.	.	.	.	.	.	8ee	.	8ee	.	8eee	.	8eeee	.
=15	=15	=15	=15	=15	=15	=15	=15	=15	=15	=15	=15	=15	=15	=15	=15	=15	=15	=15	=15	=15	=15	=15	=15	=15	=15	=15	=15	=15	=15	=15	=15	=15
8CC#X	.	8C#X	.	4.f#X 4.a	.	4cc#X	.	4ccc#X	.	4.r	4.r	.	8C#X	.	8CC#X	.	[4.f#X	.	[4.F#X	.	[4.A	.	8C#X	.	4cc#X	.	4cc#X	.	4ccc#X	.	4cccc#X	.
4FFF#X	.	4FF#X	.	.	.	.	.	.	.	.	.	.	4FF#X	.	4FF#X	.	.	.	.	.	.	.	4FF#X	.	.	.	.	.	.	.	.	.
.	.	.	.	.	.	8a	.	8aa	.	.	.	.	.	.	.	.	.	.	.	.	.	.	.	.	8a	.	8a	.	8aa	.	8aaa	.
=16	=16	=16	=16	=16	=16	=16	=16	=16	=16	=16	=16	=16	=16	=16	=16	=16	=16	=16	=16	=16	=16	=16	=16	=16	=16	=16	=16	=16	=16	=16	=16	=16
4CC#X	.	4C#X	.	4.f#X 4.a	.	8g#X	.	8gg#X	.	4.r	4.r	.	4C#Xt	.	4CC#X	.	4.f#]	.	4.F#]	.	4.A]	.	4C#X	.	8g#X	.	8g#X	.	8gg#X	.	8ggg#X	.
.	.	.	.	.	.	4f#X	.	4ff#X	.	.	.	.	.	.	.	.	.	.	.	.	.	.	.	.	4f#X	.	4f#X	.	4ff#X	.	4fff#X	.
8FFF#X	.	8FF#X	.	.	.	.	.	.	.	.	.	.	8FF#X	.	8FFF#X	.	.	.	.	.	.	.	8FF#X	.	.	.	.	.	.	.	.	.
=17	=17	=17	=17	=17	=17	=17	=17	=17	=17	=17	=17	=17	=17	=17	=17	=17	=17	=17	=17	=17	=17	=17	=17	=17	=17	=17	=17	=17	=17	=17	=17	=17
*	*	*	*	*	*	*	*	*	*	*	*	*	*	*	*	*	*	*	*	*	*	*	*	*	*^	*	*	*	*	*	*	*
4CC#X	pp	4C#X	pp	4C#X 4c#X	pp	8e	.	8ee	.	8E 8G#X 8B	8eL 8g#X 8b 8ee	p	4C#X	pp	4.r	.	4.r	.	8G#X 8B	pp	4.r	.	8CC#X	p	8e	[4.Et	pp	[4.et [4.ee	pp	4.r	.	4.r	.
.	.	.	.	.	.	8r	.	4B 4g#X 4b 4ee	pp	8r	8eeJ 8gg#X 8bb 8eee	.	.	.	.	.	.	.	8r	.	.	.	8r	.	8r	.	.	.	.	.	.	.	.
8GGG#X	.	8GG#X	.	8G#X	.	8B 8g#X 8b 8ee	pp	.	.	8E 8G# 8B 8e	8r	.	8FF#X	.	.	.	.	.	8r	.	.	.	8r	.	8r	.	.	.	.	.	.	.	.
=18	=18	=18	=18	=18	=18	=18	=18	=18	=18	=18	=18	=18	=18	=18	=18	=18	=18	=18	=18	=18	=18	=18	=18	=18	=18	=18	=18	=18	=18	=18	=18	=18	=18
8r	.	8r	.	8r	.	8r	.	4B 4g#X 4dd#X 4ee	.	8r	8dd#X 8gg#X 8bb 8ddd#X	.	8r	.	4.r	.	4.r	.	4.r	.	4.r	.	4.r	.	4.r	4.E_	.	4.e_ 4.ee_	.	4.r	.	4.r	.
4CC#X	.	4C#X	.	4C#X 4c#X	.	4B 4g#X 4dd#X 4ee	.	.	.	8D#XL 8G#X 8B 8d#X	8r	.	4C#X	.	.	.	.	.	.	.	.	.	.	.	.	.	.	.	.	.	.	.	.
.	.	.	.	.	.	.	.	8B 8g# 8b 8ee	.	8EJ 8G# 8B 8e	8ee 8gg# 8bb 8eee	.	.	.	.	.	.	.	.	.	.	.	.	.	.	.	.	.	.	.	.	.	.
=19	=19	=19	=19	=19	=19	=19	=19	=19	=19	=19	=19	=19	=19	=19	=19	=19	=19	=19	=19	=19	=19	=19	=19	=19	=19	=19	=19	=19	=19	=19	=19	=19	=19
4FFF#X	.	4FF#X	.	4F#X	.	4c#X 4e 4a 4ee	.	8r	.	8E 8A 8c#X 8e	8eeL 8aa 8ccc#X 8eee	.	4FF#X	.	4.r	.	4.r	.	4.r	.	4.r	.	4.r	.	4.r	4.E_	.	4.e_ 4.ee_	.	4.r	.	4.r	.
.	.	.	.	.	.	.	.	4c#X 4e 4a 4ee	.	8r	8cc#XJ 8ff#X 8aa 8ccc#	.	.	.	.	.	.	.	.	.	.	.	.	.	.	.	.	.	.	.	.	.	.
8CC#X	.	8C#X	.	8C#X 8c#X	.	8c# 8e 8a 8ee	.	.	.	8C#X 8F#X 8A 8c#	8r	.	8C#X	.	.	.	.	.	.	.	.	.	.	.	.	.	.	.	.	.	.	.	.
=20	=20	=20	=20	=20	=20	=20	=20	=20	=20	=20	=20	=20	=20	=20	=20	=20	=20	=20	=20	=20	=20	=20	=20	=20	=20	=20	=20	=20	=20	=20	=20	=20	=20
!!pagebreak:original
8r	.	8r	.	8r	.	8r	.	4B 4d 4b 4ee	.	8r	8b 8ff#X 8aa 8bb	.	8r	.	4.r	.	4.r	.	4.r	.	4.r	.	4.r	.	4.r	4.E_	.	4.e_ 4.ee_	.	4.r	.	4.r	.
4FFF#X	.	4FF#X	.	4F#X	.	4B 4d 4b 4ee	.	.	.	8BBL 8F#X 8A 8B	8r	.	4FF#X	.	.	.	.	.	.	.	.	.	.	.	.	.	.	.	.	.	.	.	.
.	.	.	.	.	.	.	.	8c#X 8e 8a 8ee	.	8C#XJ 8F# 8A 8c#X	8cc#X 8ff# 8aa 8ccc#X	.	.	.	.	.	.	.	.	.	.	.	.	.	.	.	.	.	.	.	.	.	.
=21	=21	=21	=21	=21	=21	=21	=21	=21	=21	=21	=21	=21	=21	=21	=21	=21	=21	=21	=21	=21	=21	=21	=21	=21	=21	=21	=21	=21	=21	=21	=21	=21	=21
4CC#X	.	4C#X	.	4C#X 4c#X	.	4r	.	8r	.	8D#X 8G#X 8B 8d#X	8dd#XL 8gg#X 8bb 8ddd#X	.	4C#X	.	4.r	.	4.r	.	4.r	.	4.r	.	4.r	.	4.r	4.E_	.	4.e_ 4.ee_	.	4.r	.	4.r	.
.	.	.	.	.	.	.	.	4B 4g#X 4b 4ee	.	8r	8eeJ 8gg# 8bb 8eee	.	.	.	.	.	.	.	.	.	.	.	.	.	.	.	.	.	.	.	.	.	.
8GGG	.	8GG	.	8G#X	.	8B 8g#X 8b 8ee	.	.	.	8E 8G# 8B 8e	8r	.	8GG#X	.	.	.	.	.	.	.	.	.	.	.	.	.	.	.	.	.	.	.	.
=22	=22	=22	=22	=22	=22	=22	=22	=22	=22	=22	=22	=22	=22	=22	=22	=22	=22	=22	=22	=22	=22	=22	=22	=22	=22	=22	=22	=22	=22	=22	=22	=22	=22
8r	.	8r	.	8r	.	8r	.	4B 4e 4a 4ee	.	8r	8bb 8eee 8aaa 8bbb	.	8r	.	4.r	.	4.r	.	4.r	.	4.r	.	4.r	.	4.r	4.E_	.	4.e_ 4.ee_	.	4.r	.	4.r	.
4CC#X	.	4C#X	.	4C#X 4c#X	.	4B 4e 4a 4ee	.	.	.	8BL 8e 8a 8b	8r	.	4C#X	.	.	.	.	.	.	.	.	.	.	.	.	.	.	.	.	.	.	.	.
.	.	.	.	.	.	.	.	8B 8g#X 8b	.	8DnJ 8E#X 8B 8dn	8ddn 8ee#X 8bb 8dddn	.	.	.	.	.	.	.	.	.	.	.	.	.	.	.	.	.	.	.	.	.	.
=23	=23	=23	=23	=23	=23	=23	=23	=23	=23	=23	=23	=23	=23	=23	=23	=23	=23	=23	=23	=23	=23	=23	=23	=23	=23	=23	=23	=23	=23	=23	=23	=23	=23
4FFF#X	.	4FF#X	.	4F#X	.	4c#X 4e 4a 4ee	.	8r	.	8C#X 8F#X 8A 8c#X	8r	.	4FF#X	.	4.r	.	4.r	.	4.r	.	4.r	.	4.r	.	4.r	4.E_	.	4.e_ 4.ee_	.	4.r	.	4.r	.
.	.	.	.	.	.	.	.	4c#X 4e 4a 4ee	.	8r	8cc#X 8ff#X 8aa 8ccc#X	.	.	.	.	.	.	.	.	.	.	.	.	.	.	.	.	.	.	.	.	.	.
8CC#X	.	8C#X	.	8C#X 8c#X	.	8c# 8e 8a 8ee	.	.	.	8A 8c# 8e 8a	8r	.	8C#X	.	.	.	.	.	.	.	.	.	.	.	.	.	.	.	.	.	.	.	.
=24	=24	=24	=24	=24	=24	=24	=24	=24	=24	=24	=24	=24	=24	=24	=24	=24	=24	=24	=24	=24	=24	=24	=24	=24	=24	=24	=24	=24	=24	=24	=24	=24	=24
8r	.	8r	.	8r	.	8r	.	4c#X 4e 4a 4ee	.	8r	8g#X 8cc#X 8ff#X 8gg#X	.	8r	.	4.r	.	4.r	.	4.r	.	4.r	.	4.r	.	4.r	4.E_	.	4.e] 4.ee]	.	4.r	.	4.r	.
4FFF#X	.	4FF#X	.	4F#X	.	4c#X 4e 4a 4ee	.	.	.	8F#X 8A 8c#X 8f#X	8r	.	4FF#X	.	.	.	.	.	.	.	.	.	.	.	.	.	.	.	.	.	.	.	.
.	.	.	.	.	.	.	.	8c# 8e 8a 8ee	.	8r	8f#X 8a 8cc# 8ff#	.	.	.	.	.	.	.	.	.	.	.	.	.	.	.	.	.	.	.	.	.	.
=25	=25	=25	=25	=25	=25	=25	=25	=25	=25	=25	=25	=25	=25	=25	=25	=25	=25	=25	=25	=25	=25	=25	=25	=25	=25	=25	=25	=25	=25	=25	=25	=25	=25
[4.CC#X	f	[4.CC#X [4.C#X	f	[4.C#X	f	4c#X 4e 4a 4ee	.	4.r	.	8E 8A 8c#X	8e 8a 8cc#X 8ee	.	4C#X	.	[4.CC#X	f	8.aL 8.aa	f	8.c#XL	f	8.eL	f	[4.C#X	.	4.r	8E]	.	8.cc#XL 8.ee	f	4.r	.	4.r	.
.	.	.	.	.	.	.	.	.	.	8r	8r	.	.	.	.	.	.	.	.	.	.	.	.	.	.	8r	.	.	.	.	.	.	.
.	.	.	.	.	.	.	.	.	.	.	.	.	.	.	.	.	8.gJ 8.gg	.	8.BJ	.	8.dJ	.	.	.	.	.	.	8.bJ 8.dd	.	.	.	.	.
.	.	.	.	.	.	8r	.	.	.	8r	8r	.	8r	.	.	.	.	.	.	.	.	.	.	.	.	8r	.	.	.	.	.	.	.
*	*	*	*	*	*	*	*	*	*	*	*	*	*	*	*	*	*	*	*	*	*	*	*	*	*v	*v	*	*	*	*	*	*	*
==	==	==	==	==	==	==	==	==	==	==	==	==	==	==	==	==	==	==	==	==	==	==	==	==	==	==	==	==	==	==	==	==
*-	*-	*-	*-	*-	*-	*-	*-	*-	*-	*-	*-	*-	*-	*-	*-	*-	*-	*-	*-	*-	*-	*-	*-	*-	*-	*-	*-	*-	*-	*-	*-	*-
!!!system-decoration: [(s1,s2,s3,s4,s5)][(s6,s7,s8,s9)][(s10)]{(s11,s12)}[(s13,s14,s15,s16,s17)]
!!!ONB: Converted from MusicXML on 2020/01/17
